X: 101
M: 6/8
L: 1/8
K: C
|:\
c2e gfe | d2e fed | edc dcB | cAF GEC |\
c2e gfe | d2e fed | edc dcB | c3 c3 :|
|:\
e2c BAG | A2F EDC | CEC DFD | EGF EDC |\

